X:236
T:Lover's Waltz for Bb Instruments
M:3/4
L:1/8
K:A
|:EAc|"A"e3 e cA|"D"F3 E DC|"A"(E6|E3) E Ac|"A"e3 e cA|"D"F3 E DC|
"Bm"(E6|"E7"E3) E FA|"Bm"B3 A Bc|"D"B A3 F2|"A"(E6|E3) E FA|
"D"B3 A Bc|"Bm"B A3 FE|"E"(e4 ef|e4 AG|"A"A4 AG|"Bm7"A4 AG|
"A"A4 AG|"D"A2 d2 c2|"A"A4 AG|"F#m"A4 FE|"Bm"(F4 F)E/2F/2|"E7"E4 AG|
"D"F2 G2 A2|"E"G2 A2 B2|"F#m"c3 d cB|A4 AG|"D"F2 G2 A2|
"E7"B3 AG2|[1"A"(A6|A3):|[2 "A"A6|B3|
